icons/1_Primary/YoBit.svg

<svg xmlns="http://www.w3.org/2000/svg" width="1024" height="1024" fill="none">
   <g clip-path="url(#a)">
      <path fill="#73ADA4" d="M512 1024c282.77 0 512-229.23 512-512S794.77 0 512 0 0 229.23 0 512s229.23 512 512 512Z"/>
      <path fill="#fff" d="M256 422.5c12.3 0 24.6-.1 36.9.4 9.7 25.1 26.6 47.4 30.9 74.4 4.6-26.9 20.5-50 31-74.8 10.8 0 21.5 0 32.3-.1-14.9 29.2-30.1 58.2-45.3 87.1-2.1 4.3-4.6 8.6-4.4 13.6-.2 17.7.1 35.4 0 53.3h-30.2c-.5-18.8.9-37.6-.6-56.3-15.9-32.9-33.6-65.2-50.6-97.6Zm175.6 42.9c18.5-3.8 40.2-.6 52.8 14.5 12.6 14.9 14.2 35.8 12.1 54.5-1.7 17.1-11.9 34.1-28.3 40.6-20.7 8.1-47.7 5.3-62.3-12.7-13.3-17.6-14.3-41.8-9.3-62.4 3.8-17 17.8-31.3 35-34.5Zm6.6 24c-11.2 3.4-13.9 16.4-14.7 26.5-.6 11.6.1 25.1 8.6 33.8 9.2 9.8 27.5 6 32.1-6.5 5.1-13.7 4.9-29.6-.2-43.3-3.6-10-16.2-14.7-25.8-10.5Zm79.3-65.6c21.4-2.4 43.1-4.3 64.8-1.7 11.1 1.5 22.9 5.1 30.5 14.1 9.3 10.1 9.5 25.7 5.1 38.1-3.7 10.3-13.7 15.6-22.2 21.1 8.7 3.4 18.5 6.8 23.8 15.3 12.6 19.6 5.1 49-16.1 59-26.5 13.2-57.3 8.6-85.7 5.9-.8-50.7-.2-101.2-.2-151.8Zm29.7 23.1c-.7 13.4-.7 27-.4 40.4 12.5-.2 26.8 1 36.7-8.3 9.7-7 8.8-24.3-2.6-29.1-10.5-5-22.5-2.9-33.7-3Zm-.5 64.2c-.1 13.6-.1 27.1 0 40.7 13.4.6 28.8 3.1 40.3-5.6 9.9-7.1 9.9-24.6-1.1-30.5-11.9-6.5-26.1-4.2-39.2-4.6Zm107.2-88.4c10.4-5 26.9-.5 28.2 12.5.4 17-25.9 21.9-34.5 8.7-4.9-7.1-1.4-17.8 6.3-21.2Zm54.6 23.7c9.7-2.6 19.2-5.3 28.8-7.9 0 9.5.1 18.9.1 28.3 8.9 0 18 .1 26.9.5-.1 7.8-.2 15.6-.4 23.3-8.8.1-17.7.1-26.5.1.6 18.8-1.7 37.8 1.3 56.5 3.4 10.5 16.5 4.5 24.1 3.5 1.7 7.3 3.4 14.7 5.1 21.9-14.2 5-30.2 9.8-44.8 3.9-10.1-3.8-13.9-15.2-14.4-24.9-1.3-20.2-.2-40.4-.5-60.7-5 0-9.8 0-14.8.1-.4-8.1-.4-16-.4-24.1 5-.1 10-.1 15-.2.2-6.8.2-13.6.5-20.3Zm-59.4 20.5c9.8-.1 19.4-.1 29.2 0v109.5h-29.2V466.9Z"/>
   </g>
   <defs>
      <clipPath id="a">
         <path fill="#fff" d="M0 0h1024v1024H0z"/>
      </clipPath>
   </defs>
</svg>

<svg width="1024" height="1024" viewBox="0 0 1024 1024" fill="none" xmlns="http://www.w3.org/2000/svg">
<g clip-path="url(#clip0_2_3999)">
<path d="M512 1024C794.77 1024 1024 794.77 1024 512C1024 229.23 794.77 0 512 0C229.23 0 0 229.23 0 512C0 794.77 229.23 1024 512 1024Z" fill="#73ADA4"/>
<path d="M256 422.5C268.3 422.5 280.6 422.4 292.9 422.9C302.6 448 319.5 470.3 323.8 497.3C328.4 470.4 344.3 447.3 354.8 422.5C365.6 422.5 376.3 422.5 387.1 422.4C372.2 451.6 357 480.6 341.8 509.5C339.7 513.8 337.2 518.1 337.4 523.1C337.2 540.8 337.5 558.5 337.4 576.4H307.2C306.7 557.6 308.1 538.8 306.6 520.1C290.7 487.2 273 454.9 256 422.5ZM431.6 465.4C450.1 461.6 471.8 464.8 484.4 479.9C497 494.8 498.6 515.7 496.5 534.4C494.8 551.5 484.6 568.5 468.2 575C447.5 583.1 420.5 580.3 405.9 562.3C392.6 544.7 391.6 520.5 396.6 499.9C400.4 482.9 414.4 468.6 431.6 465.4ZM438.2 489.4C427 492.8 424.3 505.8 423.5 515.9C422.9 527.5 423.6 541 432.1 549.7C441.3 559.5 459.6 555.7 464.2 543.2C469.3 529.5 469.1 513.6 464 499.9C460.4 489.9 447.8 485.2 438.2 489.4ZM517.5 423.8C538.9 421.4 560.6 419.5 582.3 422.1C593.4 423.6 605.2 427.2 612.8 436.2C622.1 446.3 622.3 461.9 617.9 474.3C614.2 484.6 604.2 489.9 595.7 495.4C604.4 498.8 614.2 502.2 619.5 510.7C632.1 530.3 624.6 559.7 603.4 569.7C576.9 582.9 546.1 578.3 517.7 575.6C516.9 524.9 517.5 474.4 517.5 423.8ZM547.2 446.9C546.5 460.3 546.5 473.9 546.8 487.3C559.3 487.1 573.6 488.3 583.5 479C593.2 472 592.3 454.7 580.9 449.9C570.4 444.9 558.4 447 547.2 446.9ZM546.7 511.1C546.6 524.7 546.6 538.2 546.7 551.8C560.1 552.4 575.5 554.9 587 546.2C596.9 539.1 596.9 521.6 585.9 515.7C574 509.2 559.8 511.5 546.7 511.1ZM653.9 422.7C664.3 417.7 680.8 422.2 682.1 435.2C682.5 452.2 656.2 457.1 647.6 443.9C642.7 436.8 646.2 426.1 653.9 422.7ZM708.5 446.4C718.2 443.8 727.7 441.1 737.3 438.5C737.3 448 737.4 457.4 737.4 466.8C746.3 466.8 755.4 466.9 764.3 467.3C764.2 475.1 764.1 482.9 763.9 490.6C755.1 490.7 746.2 490.7 737.4 490.7C738 509.5 735.7 528.5 738.7 547.2C742.1 557.7 755.2 551.7 762.8 550.7C764.5 558 766.2 565.4 767.9 572.6C753.7 577.6 737.7 582.4 723.1 576.5C713 572.7 709.2 561.3 708.7 551.6C707.4 531.4 708.5 511.2 708.2 490.9C703.2 490.9 698.4 490.9 693.4 491C693 482.9 693 475 693 466.9C698 466.8 703 466.8 708 466.7C708.2 459.9 708.2 453.1 708.5 446.4ZM649.1 466.9C658.9 466.8 668.5 466.8 678.3 466.9V576.4H649.1V466.9Z" fill="white"/>
</g>
<defs>
<clipPath id="clip0_2_3999">
<rect width="1024" height="1024" fill="white"/>
</clipPath>
</defs>
</svg>
